icons/svg/arrow-maximize.svg

<svg width="24" height="24" viewBox="0 0 24 24" fill="none" xmlns="http://www.w3.org/2000/svg">
<path d="M3.74997 12.75V18.75C3.74997 19.1642 3.91786 19.5392 4.18931 19.8107M11.25 20.25H5.24997C4.83576 20.25 4.46076 20.0821 4.18931 19.8107M20.25 11.25V5.25C20.25 4.83579 20.0821 4.46079 19.8106 4.18934M12.75 3.75H18.75C19.1642 3.75 19.5392 3.91789 19.8106 4.18934M4.18931 19.8107L4.74997 19.25L19.25 4.75L19.8106 4.18934" stroke="currentColor" stroke-width="1.5" stroke-linecap="round" stroke-linejoin="round"/>
</svg>

<svg xmlns="http://www.w3.org/2000/svg" width="24" height="24" fill="none" viewBox="0 0 24 24"><path stroke="currentColor" stroke-linecap="round" stroke-linejoin="round" stroke-width="1.5" d="M3.75 12.75v6c0 .414.168.79.44 1.06m7.06.44h-6a1.5 1.5 0 0 1-1.06-.44m16.06-8.56v-6c0-.414-.168-.79-.44-1.06m-7.06-.44h6c.414 0 .79.168 1.06.44M4.19 19.81l.56-.56 14.5-14.5.56-.56"/></svg>
